_site/assets/img/python.svg

<svg width="56" height="56" viewBox="0 0 56 56" fill="none" xmlns="http://www.w3.org/2000/svg">
<g style="mix-blend-mode:luminosity">
<path fill-rule="evenodd" clip-rule="evenodd" d="M22.7787 3.5C18.9338 3.5 15.8169 6.51793 15.8169 10.2407V14.9074H27.8661V16.2037H10.4617C6.61688 16.2037 3.5 19.2216 3.5 22.9444L3.5 33.0555C3.5 36.7783 6.61688 39.7963 10.4617 39.7963H14.4781V34.0926C14.4781 30.3698 17.595 27.3518 21.4399 27.3518H34.2923C37.5457 27.3518 40.183 24.7982 40.183 21.6481V10.2407C40.183 6.51793 37.0662 3.5 33.2213 3.5H22.7787ZM21.1721 11.7963C22.503 11.7963 23.582 10.7516 23.582 9.46296C23.582 8.1743 22.503 7.12963 21.1721 7.12963C19.8412 7.12963 18.7623 8.1743 18.7623 9.46296C18.7623 10.7516 19.8412 11.7963 21.1721 11.7963Z" fill="url(#paint0_linear)"/>
<path fill-rule="evenodd" clip-rule="evenodd" d="M33.2213 52.5C37.0661 52.5 40.183 49.4821 40.183 45.7593V41.0926L28.1338 41.0926L28.1338 39.7963L45.5382 39.7963C49.3831 39.7963 52.4999 36.7784 52.4999 33.0556V22.9445C52.4999 19.2217 49.3831 16.2037 45.5382 16.2037L41.5218 16.2037V21.9074C41.5218 25.6302 38.4049 28.6482 34.5601 28.6482L21.7076 28.6482C18.4543 28.6482 15.8169 31.2018 15.8169 34.3519L15.8169 45.7593C15.8169 49.4821 18.9338 52.5 22.7786 52.5H33.2213ZM34.8278 44.2037C33.4969 44.2037 32.418 45.2484 32.418 46.5371C32.418 47.8257 33.4969 48.8704 34.8278 48.8704C36.1587 48.8704 37.2376 47.8257 37.2376 46.5371C37.2376 45.2484 36.1587 44.2037 34.8278 44.2037Z" fill="url(#paint1_linear)"/>
</g>
<defs>
<linearGradient id="paint0_linear" x1="21.8415" y1="3.5" x2="21.8415" y2="39.7963" gradientUnits="userSpaceOnUse">
<stop stop-color="#327EBD"/>
<stop offset="1" stop-color="#1565A7"/>
</linearGradient>
<linearGradient id="paint1_linear" x1="34.1584" y1="16.2037" x2="34.1584" y2="52.5" gradientUnits="userSpaceOnUse">
<stop stop-color="#FFDA4B"/>
<stop offset="1" stop-color="#F9C600"/>
</linearGradient>
</defs>
</svg>

<svg width="56" height="56" fill="none" xmlns="http://www.w3.org/2000/svg"><g style="mix-blend-mode:luminosity" fill-rule="evenodd" clip-rule="evenodd"><path d="M22.779 3.5c-3.845 0-6.962 3.018-6.962 6.74v4.667h12.05v1.297H10.461c-3.845 0-6.962 3.018-6.962 6.74v10.112c0 3.722 3.117 6.74 6.962 6.74h4.016v-5.703c0-3.723 3.117-6.741 6.962-6.741h12.852c3.254 0 5.891-2.554 5.891-5.704V10.241c0-3.723-3.117-6.741-6.962-6.741H22.78zm-1.607 8.296c1.331 0 2.41-1.044 2.41-2.333 0-1.289-1.079-2.333-2.41-2.333-1.33 0-2.41 1.044-2.41 2.333 0 1.289 1.08 2.333 2.41 2.333z" fill="url(#paint0_linear)"/><path d="M33.221 52.5c3.845 0 6.962-3.018 6.962-6.74v-4.667h-12.05v-1.297h17.405c3.845 0 6.962-3.018 6.962-6.74V22.945c0-3.723-3.117-6.741-6.962-6.741h-4.016v5.703c0 3.723-3.117 6.741-6.962 6.741H21.708c-3.254 0-5.891 2.554-5.891 5.704v11.407c0 3.723 3.117 6.741 6.962 6.741H33.22zm1.607-8.296c-1.331 0-2.41 1.044-2.41 2.333 0 1.289 1.079 2.333 2.41 2.333 1.33 0 2.41-1.044 2.41-2.333 0-1.289-1.08-2.333-2.41-2.333z" fill="url(#paint1_linear)"/></g><defs><linearGradient id="paint0_linear" x1="21.841" y1="3.5" x2="21.841" y2="39.796" gradientUnits="userSpaceOnUse"><stop stop-color="#327EBD"/><stop offset="1" stop-color="#1565A7"/></linearGradient><linearGradient id="paint1_linear" x1="34.158" y1="16.204" x2="34.158" y2="52.5" gradientUnits="userSpaceOnUse"><stop stop-color="#FFDA4B"/><stop offset="1" stop-color="#F9C600"/></linearGradient></defs></svg>
